X: 30349
T: Old Pensioner, The
R: reel
M: 4/4
K: Dmajor
d2 cA BE E2|FDAG FD FA|d2 ed BEE2|Eeed cABc:|
d2 fd adfd|d2 fd BAFA|d2 fd adfd|B2Bc dAFA|
d2 fd adfd|d2 fd BAFA|d2fd c2ec|B2Bc dAFA||

